images/6234.svg

<?xml version="1.0" encoding="UTF-8"?>
<svg xmlns="http://www.w3.org/2000/svg" xmlns:xlink="http://www.w3.org/1999/xlink" width="300pt" height="300pt" viewBox="0 0 300 300" version="1.1">
<defs>
<g>
<symbol overflow="visible" id="glyph0-0">
<path style="stroke:none;" d="M 0.796875 2.828125 L 0.796875 -11.28125 L 8.796875 -11.28125 L 8.796875 2.828125 Z M 1.703125 1.9375 L 7.90625 1.9375 L 7.90625 -10.390625 L 1.703125 -10.390625 Z M 1.703125 1.9375 "/>
</symbol>
<symbol overflow="visible" id="glyph0-1">
<path style="stroke:none;" d="M 6.3125 -10.59375 C 5.164062 -10.59375 4.253906 -10.164062 3.578125 -9.3125 C 2.898438 -8.457031 2.5625 -7.296875 2.5625 -5.828125 C 2.5625 -4.359375 2.898438 -3.195312 3.578125 -2.34375 C 4.253906 -1.488281 5.164062 -1.0625 6.3125 -1.0625 C 7.457031 -1.0625 8.363281 -1.488281 9.03125 -2.34375 C 9.695312 -3.195312 10.03125 -4.359375 10.03125 -5.828125 C 10.03125 -7.296875 9.695312 -8.457031 9.03125 -9.3125 C 8.363281 -10.164062 7.457031 -10.59375 6.3125 -10.59375 Z M 6.3125 -11.875 C 7.945312 -11.875 9.253906 -11.328125 10.234375 -10.234375 C 11.210938 -9.140625 11.703125 -7.671875 11.703125 -5.828125 C 11.703125 -3.984375 11.210938 -2.507812 10.234375 -1.40625 C 9.253906 -0.3125 7.945312 0.234375 6.3125 0.234375 C 4.664062 0.234375 3.351562 -0.3125 2.375 -1.40625 C 1.394531 -2.507812 0.90625 -3.984375 0.90625 -5.828125 C 0.90625 -7.671875 1.394531 -9.140625 2.375 -10.234375 C 3.351562 -11.328125 4.664062 -11.875 6.3125 -11.875 Z M 6.3125 -11.875 "/>
</symbol>
<symbol overflow="visible" id="glyph0-2">
<path style="stroke:none;" d="M 1.578125 -11.671875 L 3.703125 -11.671875 L 8.875 -1.90625 L 8.875 -11.671875 L 10.40625 -11.671875 L 10.40625 0 L 8.28125 0 L 3.109375 -9.765625 L 3.109375 0 L 1.578125 0 Z M 1.578125 -11.671875 "/>
</symbol>
<symbol overflow="visible" id="glyph0-3">
<path style="stroke:none;" d="M 1.578125 -11.671875 L 3.15625 -11.671875 L 3.15625 -6.890625 L 8.890625 -6.890625 L 8.890625 -11.671875 L 10.46875 -11.671875 L 10.46875 0 L 8.890625 0 L 8.890625 -5.5625 L 3.15625 -5.5625 L 3.15625 0 L 1.578125 0 Z M 1.578125 -11.671875 "/>
</symbol>
<symbol overflow="visible" id="glyph1-0">
<path style="stroke:none;" d="M 0.640625 2.296875 L 0.640625 -9.171875 L 7.140625 -9.171875 L 7.140625 2.296875 Z M 1.375 1.578125 L 6.421875 1.578125 L 6.421875 -8.4375 L 1.375 -8.4375 Z M 1.375 1.578125 "/>
</symbol>
<symbol overflow="visible" id="glyph1-1">
<path style="stroke:none;" d="M 2.5 -1.078125 L 6.96875 -1.078125 L 6.96875 0 L 0.953125 0 L 0.953125 -1.078125 C 1.441406 -1.578125 2.101562 -2.25 2.9375 -3.09375 C 3.78125 -3.945312 4.3125 -4.5 4.53125 -4.75 C 4.9375 -5.207031 5.21875 -5.597656 5.375 -5.921875 C 5.539062 -6.242188 5.625 -6.554688 5.625 -6.859375 C 5.625 -7.367188 5.445312 -7.78125 5.09375 -8.09375 C 4.75 -8.40625 4.289062 -8.5625 3.71875 -8.5625 C 3.3125 -8.5625 2.882812 -8.492188 2.4375 -8.359375 C 2 -8.222656 1.523438 -8.007812 1.015625 -7.71875 L 1.015625 -9.015625 C 1.535156 -9.222656 2.019531 -9.378906 2.46875 -9.484375 C 2.914062 -9.597656 3.320312 -9.65625 3.6875 -9.65625 C 4.675781 -9.65625 5.460938 -9.40625 6.046875 -8.90625 C 6.628906 -8.414062 6.921875 -7.757812 6.921875 -6.9375 C 6.921875 -6.550781 6.847656 -6.179688 6.703125 -5.828125 C 6.554688 -5.484375 6.289062 -5.078125 5.90625 -4.609375 C 5.800781 -4.484375 5.460938 -4.125 4.890625 -3.53125 C 4.328125 -2.945312 3.53125 -2.128906 2.5 -1.078125 Z M 2.5 -1.078125 "/>
</symbol>
</g>
</defs>
<g id="surface39325">
<rect x="0" y="0" width="300" height="300" style="fill:rgb(100%,100%,100%);fill-opacity:1;stroke:none;"/>
<path style="fill:none;stroke-width:1.2;stroke-linecap:butt;stroke-linejoin:miter;stroke:rgb(0%,0%,0%);stroke-opacity:1;stroke-miterlimit:10;" d="M 127.578125 180.945312 L 163.957031 169.125 "/>
<path style="fill:none;stroke-width:1.2;stroke-linecap:butt;stroke-linejoin:miter;stroke:rgb(100%,0%,0%);stroke-opacity:1;stroke-miterlimit:10;" d="M 105.097656 150 L 116.339844 165.472656 "/>
<path style="fill:none;stroke-width:1.2;stroke-linecap:butt;stroke-linejoin:miter;stroke:rgb(0%,0%,0%);stroke-opacity:1;stroke-miterlimit:10;" d="M 116.339844 165.472656 L 127.578125 180.945312 "/>
<path style="fill:none;stroke-width:1.2;stroke-linecap:butt;stroke-linejoin:miter;stroke:rgb(0%,0%,0%);stroke-opacity:1;stroke-miterlimit:10;" d="M 163.957031 169.125 L 163.957031 130.875 "/>
<path style="fill:none;stroke-width:1;stroke-linecap:butt;stroke-linejoin:miter;stroke:rgb(0%,0%,0%);stroke-opacity:1;stroke-miterlimit:10;" d="M 163.957031 169.125 L 163.957031 169.125 M 166.042969 171.285156 L 166.65625 170.441406 M 168.125 173.441406 L 169.351562 171.753906 M 170.207031 175.601562 L 172.046875 173.070312 M 172.292969 177.757812 L 174.746094 174.382812 M 174.375 179.917969 L 177.441406 175.699219 M 176.460938 182.074219 L 180.136719 177.011719 M 178.542969 184.234375 L 182.832031 178.328125 M 180.628906 186.390625 L 185.53125 179.644531 M 182.710938 188.550781 L 188.226562 180.957031 M 184.792969 190.707031 L 190.921875 182.273438 M 186.878906 192.867188 L 193.621094 183.585938 M 188.960938 195.023438 L 196.316406 184.902344 M 190.933594 197.070312 L 198.871094 186.148438 "/>
<path style="fill:none;stroke-width:1.2;stroke-linecap:butt;stroke-linejoin:miter;stroke:rgb(0%,0%,0%);stroke-opacity:1;stroke-miterlimit:10;" d="M 166.601562 134.515625 L 182.074219 123.273438 "/>
<path style="fill:none;stroke-width:1.2;stroke-linecap:butt;stroke-linejoin:miter;stroke:rgb(100%,0%,0%);stroke-opacity:1;stroke-miterlimit:10;" d="M 182.074219 123.273438 L 197.546875 112.03125 "/>
<path style="fill:none;stroke-width:1.2;stroke-linecap:butt;stroke-linejoin:miter;stroke:rgb(0%,0%,0%);stroke-opacity:1;stroke-miterlimit:10;" d="M 161.3125 127.234375 L 176.785156 115.992188 "/>
<path style="fill:none;stroke-width:1.2;stroke-linecap:butt;stroke-linejoin:miter;stroke:rgb(100%,0%,0%);stroke-opacity:1;stroke-miterlimit:10;" d="M 176.785156 115.992188 L 192.257812 104.75 "/>
<path style="fill:none;stroke-width:1.2;stroke-linecap:butt;stroke-linejoin:miter;stroke:rgb(0%,0%,0%);stroke-opacity:1;stroke-miterlimit:10;" d="M 163.957031 130.875 L 145.769531 124.964844 "/>
<path style="fill:none;stroke-width:1.2;stroke-linecap:butt;stroke-linejoin:miter;stroke:rgb(0%,0%,100%);stroke-opacity:1;stroke-miterlimit:10;" d="M 145.769531 124.964844 L 127.578125 119.054688 "/>
<path style=" stroke:none;fill-rule:nonzero;fill:rgb(100%,100%,100%);fill-opacity:1;" d="M 188.902344 98.890625 L 201.902344 98.890625 L 201.902344 117.890625 L 188.902344 117.890625 Z M 188.902344 98.890625 "/>
<g style="fill:rgb(100%,0%,0%);fill-opacity:1;">
  <use xlink:href="#glyph0-1" x="188.902344" y="113.742188"/>
</g>
<path style="fill:none;stroke-width:1.2;stroke-linecap:butt;stroke-linejoin:miter;stroke:rgb(0%,0%,100%);stroke-opacity:1;stroke-miterlimit:10;" d="M 127.578125 119.054688 L 116.339844 134.527344 "/>
<path style="fill:none;stroke-width:1.2;stroke-linecap:butt;stroke-linejoin:miter;stroke:rgb(100%,0%,0%);stroke-opacity:1;stroke-miterlimit:10;" d="M 116.339844 134.527344 L 105.097656 150 "/>
<path style=" stroke:none;fill-rule:nonzero;fill:rgb(100%,100%,100%);fill-opacity:1;" d="M 115.578125 109.554688 L 139.578125 109.554688 L 139.578125 128.554688 L 115.578125 128.554688 Z M 115.578125 109.554688 "/>
<g style="fill:rgb(0%,0%,100%);fill-opacity:1;">
  <use xlink:href="#glyph0-2" x="115.578125" y="124.40625"/>
  <use xlink:href="#glyph0-3" x="127.546875" y="124.40625"/>
</g>
<path style=" stroke:none;fill-rule:nonzero;fill:rgb(100%,100%,100%);fill-opacity:1;" d="M 99.097656 140.5 L 112.097656 140.5 L 112.097656 159.5 L 99.097656 159.5 Z M 99.097656 140.5 "/>
<g style="fill:rgb(100%,0%,0%);fill-opacity:1;">
  <use xlink:href="#glyph0-1" x="99.097656" y="155.351562"/>
</g>
<path style=" stroke:none;fill-rule:nonzero;fill:rgb(100%,100%,100%);fill-opacity:1;" d="M 178.902344 180.109375 L 211.902344 180.109375 L 211.902344 203.109375 L 178.902344 203.109375 Z M 178.902344 180.109375 "/>
<g style="fill:rgb(0%,0%,100%);fill-opacity:1;">
  <use xlink:href="#glyph0-2" x="178.902344" y="194.960938"/>
  <use xlink:href="#glyph0-3" x="190.871094" y="194.960938"/>
</g>
<g style="fill:rgb(0%,0%,100%);fill-opacity:1;">
  <use xlink:href="#glyph1-1" x="202.902344" y="199.84375"/>
</g>
</g>
</svg>

<svg xmlns="http://www.w3.org/2000/svg" xmlns:xlink="http://www.w3.org/1999/xlink" width="300pt" height="300pt" viewBox="0 0 300 300"><defs><symbol overflow="visible"><path d="M.797 2.828v-14.11h8V2.83zm.906-.89h6.203v-12.33H1.703zm0 0"/></symbol><symbol overflow="visible" id="a"><path d="M6.313-10.594c-1.15 0-2.06.43-2.735 1.28-.68.857-1.015 2.017-1.015 3.486 0 1.47.335 2.633 1.015 3.484.676.856 1.586 1.28 2.735 1.28 1.144.002 2.05-.424 2.718-1.28.665-.85 1-2.015 1-3.484 0-1.47-.335-2.63-1-3.484-.667-.852-1.573-1.282-2.717-1.282zm0-1.28c1.632 0 2.94.546 3.92 1.64.978 1.093 1.47 2.562 1.47 4.406 0 1.844-.492 3.32-1.47 4.422-.98 1.093-2.288 1.64-3.92 1.64-1.65 0-2.96-.546-3.938-1.64-.98-1.102-1.47-2.578-1.47-4.422 0-1.844.49-3.313 1.47-4.406.977-1.094 2.29-1.64 3.938-1.64zm0 0"/></symbol><symbol overflow="visible" id="b"><path d="M1.578-11.672h2.125l5.172 9.766v-9.766h1.53V0H8.282L3.11-9.766V0H1.577zm0 0"/></symbol><symbol overflow="visible" id="c"><path d="M1.578-11.672h1.578v4.78H8.89v-4.78h1.58V0H8.89v-5.563H3.157V0H1.578zm0 0"/></symbol><symbol overflow="visible"><path d="M.64 2.297v-11.47h6.5v11.47zm.735-.72h5.047V-8.436H1.375zm0 0"/></symbol><symbol overflow="visible" id="d"><path d="M2.5-1.078h4.47V0H.952v-1.078c.488-.5 1.15-1.172 1.985-2.016C3.78-3.944 4.312-4.5 4.53-4.75c.407-.457.69-.848.845-1.172.164-.32.25-.633.25-.937 0-.507-.18-.92-.53-1.234-.345-.312-.806-.47-1.376-.47-.408.002-.837.072-1.283.205-.437.137-.914.352-1.42.64v-1.296c.518-.207 1.003-.363 1.452-.468.444-.114.85-.172 1.217-.172.99 0 1.774.25 2.36.75.582.492.875 1.148.875 1.97 0 .385-.074.756-.22 1.108-.147.344-.413.75-.796 1.22-.105.124-.445.483-1.015 1.077-.562.585-1.36 1.4-2.39 2.452zm0 0"/></symbol></defs><g><path fill="#fff" d="M0 0h300v300H0z"/><path d="M127.578 180.945l36.38-11.82" stroke-width="1.2" stroke="#000" stroke-miterlimit="10" fill="none"/><path d="M105.098 150l11.242 15.473" stroke-width="1.2" stroke="#f00" stroke-miterlimit="10" fill="none"/><path d="M116.34 165.473l11.238 15.472M163.957 169.125v-38.25" stroke-width="1.2" stroke="#000" stroke-miterlimit="10" fill="none"/><path d="M163.957 169.125m2.086 2.16l.613-.844m1.47 3l1.226-1.686m.855 3.848l1.84-2.532m.246 4.688l2.453-3.375m-.37 5.535l3.065-4.22m-.98 6.376l3.677-5.062m-1.594 7.222l4.29-5.906m-2.204 8.063l4.9-6.745m-2.82 8.906l5.517-7.593m-3.434 9.75l6.13-8.434m-4.044 10.594l6.74-9.28m-4.66 11.436l7.356-10.12m-5.382 12.167l7.937-10.922" stroke="#000" stroke-miterlimit="10" fill="none"/><path d="M166.602 134.516l15.472-11.243" stroke-width="1.2" stroke="#000" stroke-miterlimit="10" fill="none"/><path d="M182.074 123.273l15.473-11.242" stroke-width="1.2" stroke="#f00" stroke-miterlimit="10" fill="none"/><path d="M161.313 127.234l15.472-11.242" stroke-width="1.2" stroke="#000" stroke-miterlimit="10" fill="none"/><path d="M176.785 115.992l15.473-11.242" stroke-width="1.2" stroke="#f00" stroke-miterlimit="10" fill="none"/><path d="M163.957 130.875l-18.187-5.91" stroke-width="1.2" stroke="#000" stroke-miterlimit="10" fill="none"/><path d="M145.77 124.965l-18.192-5.91" stroke-width="1.2" stroke="#00f" stroke-miterlimit="10" fill="none"/><path d="M188.902 98.89h13v19h-13zm0 0" fill="#fff"/><use xlink:href="#a" x="188.902" y="113.742" fill="#f00"/><path d="M127.578 119.055l-11.238 15.472" stroke-width="1.2" stroke="#00f" stroke-miterlimit="10" fill="none"/><path d="M116.34 134.527L105.098 150" stroke-width="1.2" stroke="#f00" stroke-miterlimit="10" fill="none"/><path d="M115.578 109.555h24v19h-24zm0 0" fill="#fff"/><g fill="#00f"><use xlink:href="#b" x="115.578" y="124.406"/><use xlink:href="#c" x="127.547" y="124.406"/></g><path d="M99.098 140.5h13v19h-13zm0 0" fill="#fff"/><use xlink:href="#a" x="99.098" y="155.352" fill="#f00"/><path d="M178.902 180.11h33v23h-33zm0 0" fill="#fff"/><g fill="#00f"><use xlink:href="#b" x="178.902" y="194.961"/><use xlink:href="#c" x="190.871" y="194.961"/></g><use xlink:href="#d" x="202.902" y="199.844" fill="#00f"/></g></svg>
